src/images/std-icons/std-attachment.svg

<svg xmlns="http://www.w3.org/2000/svg" width="512" height="512" viewBox="0 0 512 512">
  <title>attachment</title>
  <path fill="#000" fill-rule="nonzero" d="M429.4912,127.77728 C396.149685,94.485703 342.145355,94.485703 308.80384,127.77728 L308.8064,127.780053 L308.798507,127.785173 L173.033173,263.550507 L173.01632,263.575253 L173.010987,263.570133 C152.191177,284.407675 152.205552,318.17763 173.043093,338.99744 C193.880635,359.81725 227.65059,359.802875 248.4704,338.965333 L248.46912,338.964053 L248.47168,338.96128 L354.05376,233.379413 C359.443078,227.989867 361.547725,220.134553 359.574899,212.772493 C357.602074,205.410433 351.851496,199.660099 344.489353,197.687586 C337.127209,195.715073 329.271985,197.820053 323.882667,203.2096 L218.301867,308.7904 L218.291413,308.805973 C214.124859,312.972173 207.369827,312.971887 203.203627,308.805333 C199.037427,304.638779 199.037713,297.883747 203.204267,293.717547 L338.967253,157.954347 L338.978987,157.936213 C355.647831,141.319397 382.623241,141.335688 399.272003,157.972625 C415.920765,174.609562 415.956222,201.584953 399.351253,218.2656 L399.307093,218.294187 L240.928427,376.672853 C222.092427,395.659718 194.539801,403.12198 168.696464,396.235919 C142.853126,389.349859 122.666573,369.167302 115.775396,343.325328 C108.884219,317.483355 116.341025,289.929252 135.32416,271.089493 L135.32416,271.088213 L218.76736,187.645867 C226.801102,179.565438 226.801102,166.513922 218.76736,158.433493 L217.810347,157.4752 C209.729389,149.442741 196.678931,149.442741 188.597973,157.4752 L104.67264,241.400533 C104.503467,241.56992 104.453973,241.80288 104.2912,241.976533 C59.2221327,288.096392 59.8495668,361.952943 105.695677,407.300449 C151.541788,452.647955 225.400785,452.467749 271.025067,406.897067 L271.086293,406.856747 L429.478187,248.464853 L429.48352,248.45696 L429.4912,248.464853 C462.741379,215.106136 462.741379,161.135997 429.4912,127.77728 Z"/>
</svg>

<svg xmlns="http://www.w3.org/2000/svg" viewBox="0 0 512 512">
  <title>
    attachment
  </title>
  <path d="M429.5 127.78a85.4 85.4 0 0 0-120.7 0L173.03 263.56l-.01.03v-.01a53.34 53.34 0 1 0 75.45 75.4l105.58-105.6a21.33 21.33 0 1 0-30.17-30.16L218.3 308.79v.02a10.67 10.67 0 0 1-15.1-15.1l135.77-135.76v-.01a42.67 42.67 0 0 1 60.38 60.33l-.04.02-158.38 158.38a74.67 74.67 0 1 1-105.6-105.58l83.44-83.44a20.72 20.72 0 0 0 0-29.22l-.96-.95a20.72 20.72 0 0 0-29.21 0l-83.93 83.92c-.17.17-.22.4-.38.58-45.07 46.12-44.44 119.97 1.4 165.32 45.85 45.35 119.71 45.17 165.34-.4l.06-.04 158.39-158.4h.01a85.48 85.48 0 0 0 0-120.68z"/>
</svg>
